X: 59
M:6/8
L:1/8
K:G
uD|\
|:ud|\
gfg gfd | cBc def | gfg agd | cBc def |
gag gfg | ece efg | dec BcB | AGG G2:|


